!!!SOCIAL_FUNCTION:	songs used in treatment of the sick
!!!PDT:	1918

Specific Region: Dakotas, Minnesota, Montana, Nebraska
!!!REG: Dakotas and Montana
!!!LING_GROUP: Siouan
!!!LANG: Tone
!!!OTL@ENG: The Sunrise
!!!ONM: No. 79
**kern
*Imale
*clefF4
*k[b-e-]
*M2/4
*>[A,B,B]
*>norep[A,B]
*>A
*MM84
8.f
16f
=1
4d
8.d
16e-
=2
4d
16d
8.d
=3
4d
*>B
=!|:
8.d
16d
=4||
*k[b-]
*M3/4
4c
8c
16r
16d
8.c
16d
=5||
*M2/4
4B-
(8.B-
16G)
=6
4G
8.B-
16B-
=7||
*M3/4
4G
8G
16r
16A
8.G
16G
=8||
*M2/4
4F
(8.F
16D)
=9
4D
8.G
16G
=10||
*M3/4
4F
8F
16r
16G
8.F
16F
=11||
*M2/4
4D
8.D
16D
=12
2D
=13||
*M3/4
2D
==:|!
*-
!!!CNT: Native American -- Sioux
!!!MRD: 1911/07//-1914///
!!!OCL: Frances Densmore
!!!YOR1: Teton Sioux Music, Bulletin 61,
!!!YOR2: Bureau of American Ethnology, Smithsonian Institution
!!!PPR: Government Printing Office
!!!PPP: Washington, D.C.
!!!PDT: 1918///
!!!ENC: Craig Stuart Sapp
!!!END: 2002/03/25/
!!!EEV: 2002/03/31/
!!!AGN: Song of Personal Dreams/Song Used in Treatment of the Sick
!!!MPN@@SIO: Tatang'ka-ohi'tika
!!!MPN@ENG: Brave Buffalo
!!!TXO: Teton Sioux
!!!MLC: Standing Rock Reservation, South Dakota, United States of America
!!!ARL: 45.9/-100.7#
!!!catalog: Catalogue No. 603
!!!PPG: 249
!!!EFL: 79/245
!!!VTS: 1678538349
